dist/img/medicine.svg

<svg width="100" height="114" viewBox="0 0 100 114" fill="none" xmlns="http://www.w3.org/2000/svg">
<g clip-path="url(#clip0)">
<path d="M52.6824 74.4388V92.9961C46.4074 93.3921 40.5509 93.2962 37.1239 93.0898C34.9936 92.9593 33.1543 94.5878 33.0251 96.7255C32.896 98.8628 34.5215 100.7 36.656 100.83C37.5776 100.886 40.3984 101.035 44.263 101.035C46.7213 101.035 49.603 100.973 52.6824 100.79V106.209H36.8901C34.7518 106.209 33.0182 107.945 33.0182 110.086C33.0182 112.228 34.7518 113.964 36.8901 113.964H76.2185C78.3568 113.964 80.0905 112.228 80.0905 110.086C80.0905 107.945 78.3568 106.209 76.2185 106.209H60.4266V100.071C68.9219 98.9695 77.5571 96.6902 82.4008 92.1251C85.1779 89.5081 86.6456 86.2277 86.6456 82.6392C86.6456 76.5807 82.6346 72.3134 74.7233 69.9566C70.6808 68.7521 65.7655 68.038 60.4266 67.4686V60.14C70.2371 59.5414 79.3854 56.6788 86.5122 51.9211C95.0523 46.2206 99.7554 38.4818 99.7554 30.131C99.7554 27.9899 98.0218 26.2539 95.8835 26.2539H17.2259C15.0876 26.2539 13.354 27.9899 13.354 30.131C13.354 38.4818 18.0571 46.2206 26.5972 51.9211C33.7241 56.6788 42.872 59.5414 52.6828 60.14V66.7272C52.6387 66.7234 52.5951 66.7192 52.551 66.7153C26.4585 64.3597 7.98873 61.2988 7.98873 43.2576C7.98873 21.5849 26.7118 16.0574 34.1801 14.7148C36.2858 18.3797 41.0487 20.8811 46.7228 20.8811C54.4076 20.8811 60.427 16.2953 60.427 10.4406C60.427 4.5858 54.4068 0 46.7224 0C40.6609 0 35.6382 2.85447 33.7854 6.933C30.4327 7.4821 24.5727 8.81974 18.6775 11.9754C10.2684 16.4772 0.244141 25.5586 0.244141 43.258C0.244141 55.0979 6.36394 63.5524 18.4342 68.3864C28.2197 72.3053 41.6036 73.4388 52.6824 74.4388ZM46.7224 7.75454C50.3613 7.75454 52.6824 9.51848 52.6824 10.4409C52.6824 11.3634 50.3613 13.1273 46.7224 13.1273C43.0835 13.1273 40.762 11.3634 40.762 10.4409C40.762 9.51848 43.0831 7.75454 46.7224 7.75454ZM72.5149 77.3896C78.9014 79.2921 78.9014 81.5529 78.9014 82.6396C78.9014 84.0958 78.3273 85.3149 77.0946 86.4775C73.8476 89.5396 67.3822 91.287 60.4262 92.2406V75.2684C65.0489 75.7799 69.2296 76.4107 72.5149 77.3896ZM21.645 34.0085H91.4636C90.2554 38.2528 87.0759 42.2254 82.2157 45.4697C75.4165 50.0083 66.3035 52.5082 56.5543 52.5082C46.8052 52.5082 37.6918 50.0087 30.8929 45.4697C26.0327 42.2258 22.8533 38.2531 21.645 34.0085Z" fill="#306990"/>
</g>
<defs>
<clipPath id="clip0">
<rect width="100" height="113.964" fill="white"/>
</clipPath>
</defs>
</svg>

<svg width="100" height="114" fill="none" xmlns="http://www.w3.org/2000/svg"><g clip-path="url(#clip0)"><path d="M52.682 74.439v18.557c-6.275.396-12.131.3-15.558.094a3.875 3.875 0 00-4.099 3.635 3.876 3.876 0 003.631 4.105c.922.056 3.742.205 7.607.205 2.458 0 5.34-.062 8.42-.245v5.419H36.89a3.875 3.875 0 00-3.872 3.877 3.875 3.875 0 003.872 3.878h39.33a3.875 3.875 0 003.872-3.878 3.875 3.875 0 00-3.872-3.877H60.427v-6.138c8.495-1.102 17.13-3.38 21.974-7.946 2.777-2.617 4.245-5.897 4.245-9.486 0-6.058-4.011-10.326-11.923-12.682-4.042-1.205-8.957-1.919-14.296-2.488V60.14c9.81-.599 18.958-3.461 26.085-8.219 8.54-5.7 13.243-13.44 13.243-21.79a3.875 3.875 0 00-3.871-3.877H17.225a3.875 3.875 0 00-3.872 3.877c0 8.35 4.703 16.09 13.243 21.79 7.127 4.758 16.275 7.62 26.086 8.219v6.587l-.132-.012C26.458 64.36 7.989 61.3 7.989 43.258c0-21.673 18.723-27.2 26.191-28.543 2.106 3.665 6.869 6.166 12.543 6.166 7.685 0 13.704-4.586 13.704-10.44C60.427 4.586 54.407 0 46.722 0c-6.061 0-11.084 2.854-12.937 6.933-3.352.55-9.212 1.887-15.107 5.042C10.267 16.477.243 25.56.243 43.258c0 11.84 6.12 20.294 18.19 25.128 9.786 3.92 23.17 5.053 34.248 6.053zm-5.96-66.684c3.64 0 5.96 1.763 5.96 2.686 0 .922-2.32 2.686-5.96 2.686-3.639 0-5.96-1.764-5.96-2.686 0-.923 2.321-2.686 5.96-2.686zM72.515 77.39c6.386 1.902 6.386 4.163 6.386 5.25 0 1.456-.574 2.675-1.806 3.838-3.247 3.062-9.713 4.809-16.669 5.763V75.268c4.623.512 8.804 1.143 12.089 2.122zm-50.87-43.382h69.819c-1.209 4.245-4.388 8.217-9.248 11.462-6.8 4.538-15.912 7.038-25.662 7.038-9.749 0-18.862-2.5-25.661-7.038-4.86-3.244-8.04-7.217-9.248-11.462z" fill="#306990"/></g><defs><clipPath id="clip0"><path fill="#fff" d="M0 0h100v113.964H0z"/></clipPath></defs></svg>
